X:1
T:He’s Coming Back Again
T:Mrs. H. S. Lehman, 1922
T:He’s Coming Back Again
T:Public Domain
T:Public Domain
T:Public Domain
C:Mrs. H. S. Lehman, 1922
Z:Public Domain
%%score ( 1 2 ) ( 3 4 )
L:1/8
M:4/4
K:C
V:1 treble 
V:2 treble 
V:3 bass 
V:4 bass 
V:1
 [Ec]>[EB] [Ed]>[Ec] [EB]>[Ed] [Ec]>[EA] | [Fc]2 [FB]2 [FB]4 | %2
w: 1.~There’s a bless- èd hope that thrills my|heart to know|
w: 2.~He Who on the cross for me was|cru- ci- fied,|
w: 3.~When He comes a- gain ’twill be as|King of kings,|
 [FB]>[FA] [Fc]>[FB] [FA]>[Fc] [FB]>[FG] | [EA]2 [EG]2 (F2 D2) | %4
w: That the Christ who came to earth so|long a- go, *|
w: He Who for my sin and shame in|an- guish died, *|
w: Per- fect peace and joy to all the|earth He’ll bring, *|
 [^CA]>[CA] [C_B]>[CA] [CG]>[CE] [CF]>[CE] | D2 [DA]2 [DA]4 | %6
w: ing all our sins be- cause He loved|us so, Prom-|
w: Whose re- sur- rect- ion ful- ly jus-|ti- fied, Prom-|
w: through- out e- ter- ni- ty, His praise|we’ll sing, When,|
 [C^F]>[CF] [CE]>[CD] [CF]>[CF] [CE]>[CD] | (B,2 C2 D2 F2) || %8
w: He’d come back a- gain some day. Com-|ing, * * *|
w: He’d come back a- gain some day. *||
w: glo- ry, He re- turns some day. *||
"^Refrain" (E>E) (E>E [EG]>)[EA] [Ec]>[EA] | (F>F) (F>F F2 F>)[FA] | %10
w: yes, * He’s * * com- ing, The|same * as * * * when|
w: ||
w: ||
 [FG]>[FA] [FG]>[B,D] [FG]>[FA] [FG]>[B,D] | (E2 E2 F2 F2) | (E>E) (E>E [EG]>)[EA] [FB]>[Gc] | %13
w: a- way, Com- ing, my Lord is com-|ing, * * *|praise * His * * bless- èd name,|
w: |||
w: |||
 (F>F) (F>F [_EA]>)[Ec] [EB]>[EA] | [EG]>[CE] [EG]>[Ec] [Ge]>[Ge] [Fd]>[Fd] | (E2 F2 E4) |] %16
w: ing * back * * some day. *|||
w: |||
w: |||
V:2
 x8 | x8 | x8 | x4 G4 | x8 | D2 x6 | x8 | G8 || c2 G2- x4 | c2 B2- B3 x | x8 | G8 | c2 G2- x4 | %13
w: |||Bear-||ised||oh,|ver- y|He went *||Oh|He’s com-|
w: |||He||ised||||||||
w: |||Then||in||||||||
 d2 A2- x4 | x8 | c8 |] %16
w: |||
w: |||
w: |||
V:3
 [C,G,]>[C,G,] [C,G,]>[C,G,] [C,G,]>[C,G,] [C,G,]>[C,C] | [G,D]2 [G,D]2 [G,D]4 | %2
w: ~ ~ ~ ~ ~ ~ ~ ~|~ ~ ~|
 [G,D]>[G,D] [G,A,]>[G,D] [G,C]>[G,A,] [G,D]>[G,B,] | [C,C]2 [^C,_B,]2 [D,=B,]4 | %4
w: ~ ~ ~ ~ ~ ~ ~ ~|~ ~ ~|
 [A,,A,]>[A,,A,] [A,,G,]>[A,,A,] [A,,_B,]>[A,,A,] [A,,A,]>[A,,G,] | [D,F,]2 [D,F,]2 [D,F,]4 | %6
w: ~ ~ ~ ~ ~ ~ ~ ~|~ ~ ~|
 [D,A,]>[D,A,] [D,G,]>[D,^F,] [D,A,]>[D,A,] [D,G,]>[D,F,] | (G,2 A,2 B,2 [G,B,]2) || %8
w: ~ ~ ~ ~ ~ ~ ~ ~|~ * * *|
 [C,G,]>[C,C] [C,C]>[C,C] [C,C]>[C,C] [C,G,]>[C,C] | [G,D]>[G,D] [G,D]>[G,D] [G,D]2 [G,D]>[G,C] | %10
w: ing back a- gain, Oh, yes, He’s com-|ing back a- gain just The ver-|
 [G,B,]>[G,C] [G,B,]>[F,G,] [G,B,]>[G,C] [G,B,]>G, | [C,C]2 [^C,_B,]2 [D,=B,]2 [G,B,]2 | %12
w: y same as when He went a- way,|know He’s, Com- ing,|
 [C,G,]>[C,C] [C,C]>[C,C] [C,C]>[C,C] [D,G,]>[E,_B,] | %13
w: and I’m sure My Lord is com- ing|
 [F,A,]>[F,C] [F,C]>[F,C] [F,C]>[F,A,] [F,B,]>[F,C] | %14
w: ver- y soon, Oh, praise His bless- èd|
 [G,C]>G, [E,C]>[C,G,] [G,C]>[G,C] [G,B,]>[G,B,] | [C,G,]2 (_A,A,) [C,G,]4 |] %16
w: Name, He’s com- ing back some hap- py||
V:4
 x8 | x8 | x8 | x8 | x8 | x8 | x8 | G,,6 x2 || x8 | x8 | x15/2 G,/ | x8 | x8 | x8 | x3/2 G,/ x6 | %15
w: |||||||Com-|||I||||day.|
 x2 C,2 x4 |] %16
w: |

